X:6
T:No.88 The Corn Reeks
C:barndance
L:1/8
M:4/4
K:D
ag||f2ed f2ed|cBcd e2ag|f2ed f2ed|
e2a2 abag|f2ed f2ed|cBcd e2A2|
Bcdf edcB|[1A2d2d2ag:|[2A2d2d2fg||
abag f2ed|cBcd e2A2|abag f2ed|
e2a2a3a|abag f2ed|cBcd e2A2|
Bcdf edcB|[1A2d2d2fg:|[2A2d2d2ag||
